packages/web-icons/svgs/title_deco_left.svg

<svg viewBox="0 0 85 24" xmlns="http://www.w3.org/2000/svg" class="ridi_icon"><path d="M73.3 9.9c3.5 0 7.1 2.7 7.1 6 0 1.2-.4 2.6-1.5 3.4-.5.5-.5 1.1.1 1.9.8.9 1.8 1.5 2.9 1.5 1.3 0 3.1-1.3 3.1-3.8 0-1.4-.9-4.4-4.3-7.2-3.6-2.9-6.8-3.9-10.3-4.1C62.8 1.2 56.7 0 52.2 0 47.4 0 43 1.6 40.8 2.6c-2 .8-9.6 4.1-15 6.6-5.7 2.5-10.5 4-13.9 4-2.7 0-6.6-1-6.6-4.5 0-1.3.5-2.2 1.2-2.7.4-.3.7-.8.7-1.2 0-1.3-1.1-3.2-3-3.2-2.1 0-3.3 2.3-3.3 4 0 4.6 4.8 7.8 8 9.2C15 21.3 21 24 26.8 24c4.3 0 8.4-1.2 13.8-3.3 4.1-1.6 17-7.1 22.1-8.9 4.8-1.5 7.5-1.9 10.6-1.9-.1 0 0 0 0 0zM56.7 2.5c4 0 7.7 2.1 9.6 5.2-2.3 0-5.7.5-11.3 2.7-5.6 2-16 6.7-19.6 8-4.1 1.5-8 2.6-11.8 2.6-4.3 0-8.1-1.5-10.2-5.3 4 .5 7.8-.1 13.4-2.4 4.3-1.7 16-7.4 20-8.9 3.4-1.2 6.6-1.9 9.9-1.9z"/></svg>

<?xml version="1.0" encoding="UTF-8"?>
<svg width="85px" height="24px" viewBox="0 0 85 24" version="1.1" xmlns="http://www.w3.org/2000/svg">
  <!-- Generator: Sketch 41.2 (35397) - http://www.bohemiancoding.com/sketch -->
  <title>title_deco_left</title>
  <desc>Created with Sketch.</desc>
  <defs></defs>
  <g id="Page-1" stroke="none" stroke-width="1" fill="none" fill-rule="evenodd">
    <g id="title_deco_left" fill="#000000">
      <g id="레이어_1">
        <path d="M73.3,9.9 C76.8,9.9 80.4,12.6 80.4,15.9 C80.4,17.1 80,18.5 78.9,19.3 C78.4,19.8 78.4,20.4 79,21.2 C79.8,22.1 80.8,22.7 81.9,22.7 C83.2,22.7 85,21.4 85,18.9 C85,17.5 84.1,14.5 80.7,11.7 C77.1,8.8 73.9,7.8 70.4,7.6 C62.8,1.2 56.7,0 52.2,0 C47.4,0 43,1.6 40.8,2.6 C38.8,3.4 31.2,6.7 25.8,9.2 C20.1,11.7 15.3,13.2 11.9,13.2 C9.2,13.2 5.3,12.2 5.3,8.7 C5.3,7.4 5.8,6.5 6.5,6 C6.9,5.7 7.2,5.2 7.2,4.8 C7.2,3.5 6.1,1.6 4.2,1.6 C2.1,1.6 0.9,3.9 0.9,5.6 C0.9,10.2 5.7,13.4 8.9,14.8 C15,21.3 21,24 26.8,24 C31.1,24 35.2,22.8 40.6,20.7 C44.7,19.1 57.6,13.6 62.7,11.8 C67.5,10.3 70.2,9.9 73.3,9.9 C73.2,9.9 73.3,9.9 73.3,9.9 Z M56.7,2.5 C60.7,2.5 64.4,4.6 66.3,7.7 C64,7.7 60.6,8.2 55,10.4 C49.4,12.4 39,17.1 35.4,18.4 C31.3,19.9 27.4,21 23.6,21 C19.3,21 15.5,19.5 13.4,15.7 C17.4,16.2 21.2,15.6 26.8,13.3 C31.1,11.6 42.8,5.9 46.8,4.4 C50.2,3.2 53.4,2.5 56.7,2.5 L56.7,2.5 L56.7,2.5 Z" id="Shape"></path>
      </g>
    </g>
  </g>
</svg>
